X: 15580
T: Glountane Monument, The
R: polka
M: 2/4
K: Dmajor
|:A2 AF|Ad fd|B2 B>A|Bd ed|
A2 A/B/A/F/|Ad fd|Ac ef|1 d2 dB:|2 d2 de||
|:f2 f>e|fa fd|e2 e>f|ed Bd|
f2 f/g/f/e/|fa fd|Ac ef|1 d2 dA:|2 d2 dB||

